projects/flag-game/flags/Vanuatu.svg

<svg viewBox="0 0 1000 600" xmlns="http://www.w3.org/2000/svg"><g fill-rule="evenodd"><path d="m0 0h1000v300h-1000zm0 0" fill="#d21034"/><path d="m0 300h1000v300h-1000zm0 0" fill="#009543"/><path d="m0 0 581.910156 300-581.910156 300zm0 0"/><path d="m0 246.3125h1000v107.371094h-1000zm0 0"/><path d="m0 42.636719 499.210938 257.363281-499.210938 257.363281zm0 0" fill="#fdce12"/><path d="m0 284.210938h1000v31.578124h-1000zm0 0" fill="#fdce12"/><path d="m0 78.167969 430.296875 221.832031-430.296875 221.832031zm0 0"/><g fill="#fdce12"><path d="m121.558594 357.398438v34.179687c29.742187 0 88.109375-22.785156 88.109375-96.160156 0-73.378907-62.265625-86.996094-80.882813-86.996094-18.621094 0-76.15625 13.339844-76.15625 73.375 0 60.03125 56.421875 65.589844 67.539063 65.589844 11.117187 0 52.804687-10 48.085937-55.027344 0 12.785156-14.453125 39.746094-44.75 39.746094-30.292968 0-49.195312-22.519531-49.195312-44.75 0-22.234375 18.34375-51.980469 50.308594-51.980469 31.957031 0 55.304687 28.355469 55.304687 56.984375s-22.507813 65.039063-58.363281 65.039063zm0 0"/><path d="m95.5 312.890625 1.773438 1.148437s14.070312-32.105468 51.902343-54.933593c-4.789062 2.613281-30.117187 15.21875-53.675781 53.785156zm0 0" stroke="#fdce12" stroke-width="1.052631"/><path d="m99.152344 307.363281s-4.378906-8.960937-.519532-12.921875c3.855469-3.960937 2.082032 10.53125 2.082032 10.53125l1.671875-2.402344s-2.613281-10.945312.308593-13.238281c2.917969-2.289062 1.453126 10.53125 1.453126 10.53125l1.777343-2.296875s-1.875-10.628906.933594-12.613281c2.816406-1.976563 1.050781 10.007813 1.050781 10.007813l2.082032-2.398438s-1.5625-10.109375 1.871093-12.5c3.445313-2.402344.417969 9.585938.417969 9.585938l2.292969-2.5s-1.039063-9.277344 1.878906-11.367188c2.914063-2.082031.417969 8.757812.417969 8.757812l2.082031-2.191406s-.625-8.648437 2.1875-10.625c2.816406-1.980468.214844 8.234375.214844 8.234375l2.1875-2.085937s-.519531-8.648438 3.019531-10.316406c3.539062-1.667969-.628906 8.128906-.628906 8.128906l2.402344-2.082032s.722656-10.117187 3.75-11.054687c3.023437-.933594-1.355469 8.960937-1.355469 8.960937l2.1875-1.765624s1.148437-8.652344 4.484375-9.691407c3.335937-1.042969-2.082032 7.917969-2.082032 7.917969l2.1875-1.667969s2.390626-8.652343 5.515626-9.585937c3.136718-.9375-3.226563 8.128906-3.226563 8.128906l2.089844-1.457031s3.433593-7.820313 6.25-8.339844c2.816406-.523437-3.125 6.460937-3.125 6.460937l2.601562-1.5625s4.488281-8.128906 6.050781-5.632812c1.5625 2.507812-6.261718 6.152344-6.261718 6.152344l-2.601563 1.457031s9.488281-4.484375 10.632813-2.1875c1.140625 2.292969-13.027344 3.75-13.027344 3.75l-2.292969 1.5625s9.480469-2.601563 8.332031-.203125c-1.140624 2.390625-10.523437 1.871094-10.523437 1.871094l-2.1875 1.5625s9.480469-2.285156 8.234375-.097656c-1.253906 2.179687-10.527344 1.980468-10.527344 1.980468l-2.289062 1.867188s9.269531-2.390625 7.917968.425781c-1.359374 2.808594-11.878906 2.710937-11.878906 2.710937l-2.605468 2.390626s9.789062-3.335938 8.960937-.722657c-.832031 2.601563-11.988281 3.953125-11.988281 3.953125l-2.5 2.507813s10.523437-3.550781 7.398437-.316407c-3.125 3.230469-10.734375 4.066407-10.734375 4.066407l-3.019531 3.648437s10.417969-6.261718 8.960937-2.710937c-1.457031 3.539062-11.671874 5.941406-11.671874 5.941406l-2.082032 2.496094s9.375-5.417969 8.441406-2.390625c-.9375 3.019531-10.949218 6.25-10.949218 6.25l-1.667969 2.292968s11.054687-6.566406 10.109375-3.230468c-.9375 3.335937-11.457031 5.730468-11.457031 5.730468l-1.363281 2.082032s10.214843-5.832032 10.320312-3.019532c.105469 2.816407-11.988281 5.632813-11.988281 5.632813zm0 0"/><path d="m155.550781 312.890625-1.777343 1.148437s-14.066407-32.105468-51.902344-54.933593c4.792968 2.613281 30.125 15.21875 53.679687 53.785156zm0 0" stroke="#fdce12" stroke-width="1.052631"/><path d="m151.902344 307.363281s4.382812-8.960937.523437-12.921875c-3.859375-3.960937-2.085937 10.53125-2.085937 10.53125l-1.667969-2.402344s2.605469-10.945312-.316406-13.238281c-2.914063-2.289062-1.457031 10.53125-1.457031 10.53125l-1.773438-2.296875s1.878906-10.628906-.933594-12.613281c-2.820312-1.976563-1.042968 10.007813-1.042968 10.007813l-2.082032-2.398438s1.5625-10.109375-1.882812-12.5c-3.433594-2.402344-.414063 9.585938-.414063 9.585938l-2.292969-2.5s1.039063-9.277344-1.875-11.367188c-2.921874-2.082031-.421874 8.757812-.421874 8.757812l-2.082032-2.191406s.625-8.648437-2.191406-10.625c-2.804688-1.980468-.203125 8.234375-.203125 8.234375l-2.1875-2.085937s.519531-8.648438-3.027344-10.316406c-3.539062-1.667969.625 8.128906.625 8.128906l-2.390625-2.082032s-.734375-10.117187-3.753906-11.054687c-3.027344-.933594 1.351562 8.960937 1.351562 8.960937l-2.1875-1.765624s-1.148437-8.652344-4.476562-9.691407c-3.335938-1.042969 2.082031 7.917969 2.082031 7.917969l-2.1875-1.667969s-2.402343-8.652343-5.527343-9.585937c-3.125-.9375 3.230468 8.128906 3.230468 8.128906l-2.082031-1.457031s-3.441406-7.820313-6.257813-8.339844c-2.808593-.523437 3.132813 6.460937 3.132813 6.460937l-2.613281-1.5625s-4.476563-8.128906-6.046875-5.632812c-1.5625 2.507812 6.257812 6.152344 6.257812 6.152344l2.605469 1.457031s-9.480469-4.484375-10.628906-2.1875c-1.144532 2.292969 13.027344 3.75 13.027344 3.75l2.289062 1.5625s-9.480469-2.601563-8.332031-.203125c1.148437 2.390625 10.523437 1.871094 10.523437 1.871094l2.1875 1.5625s-9.480468-2.285156-8.230468-.097656c1.246093 2.179687 10.523437 1.980468 10.523437 1.980468l2.296875 1.867188s-9.277344-2.390625-7.925781.425781c1.355469 2.808594 11.886719 2.710937 11.886719 2.710937l2.605468 2.390626s-9.796875-3.335938-8.96875-.722657c.839844 2.601563 11.988282 3.953125 11.988282 3.953125l2.503906 2.507813s-10.527344-3.550781-7.402344-.316407c3.125 3.230469 10.734375 4.066407 10.734375 4.066407l3.027344 3.648437s-10.425781-6.261718-8.96875-2.710937c1.464843 3.539062 11.679687 5.941406 11.679687 5.941406l2.082032 2.496094s-9.382813-5.417969-8.449219-2.390625c.945312 3.019531 10.945312 6.25 10.945312 6.25l1.671875 2.292968s-11.046875-6.566406-10.109375-3.230468c.9375 3.335937 11.464844 5.730468 11.464844 5.730468l1.351563 2.082032s-10.214844-5.832032-10.316407-3.019532c-.105469 2.816407 11.984375 5.632813 11.984375 5.632813zm0 0"/></g></g></svg>

<?xml version="1.0" encoding="UTF-8"?>
<svg xmlns="http://www.w3.org/2000/svg" xmlns:xlink="http://www.w3.org/1999/xlink" viewBox="0 0 1000 600" version="1.1">
<g id="surface1270">
<path style=" stroke:none;fill-rule:evenodd;fill:rgb(82.351685%,6.274414%,20.391846%);fill-opacity:1;" d="M 0 0 L 1000 0 L 1000 300 L 0 300 Z M 0 0 "/>
<path style=" stroke:none;fill-rule:evenodd;fill:rgb(0%,58.430481%,26.274109%);fill-opacity:1;" d="M 0 300 L 1000 300 L 1000 600 L 0 600 Z M 0 300 "/>
<path style=" stroke:none;fill-rule:evenodd;fill:rgb(0%,0%,0%);fill-opacity:1;" d="M 0 0 L 581.910156 300 L 0 600 Z M 0 0 "/>
<path style=" stroke:none;fill-rule:evenodd;fill:rgb(0%,0%,0%);fill-opacity:1;" d="M 0 246.3125 L 1000 246.3125 L 1000 353.683594 L 0 353.683594 Z M 0 246.3125 "/>
<path style=" stroke:none;fill-rule:evenodd;fill:rgb(99.214172%,80.783081%,7.058716%);fill-opacity:1;" d="M 0 42.636719 L 499.210938 300 L 0 557.363281 Z M 0 42.636719 "/>
<path style=" stroke:none;fill-rule:evenodd;fill:rgb(99.214172%,80.783081%,7.058716%);fill-opacity:1;" d="M 0 284.210938 L 1000 284.210938 L 1000 315.789062 L 0 315.789062 Z M 0 284.210938 "/>
<path style=" stroke:none;fill-rule:evenodd;fill:rgb(0%,0%,0%);fill-opacity:1;" d="M 0 78.167969 L 430.296875 300 L 0 521.832031 Z M 0 78.167969 "/>
<path style=" stroke:none;fill-rule:evenodd;fill:rgb(99.214172%,80.783081%,7.058716%);fill-opacity:1;" d="M 121.558594 357.398438 L 121.558594 391.578125 C 151.300781 391.578125 209.667969 368.792969 209.667969 295.417969 C 209.667969 222.039062 147.402344 208.421875 128.785156 208.421875 C 110.164062 208.421875 52.628906 221.761719 52.628906 281.796875 C 52.628906 341.828125 109.050781 347.386719 120.167969 347.386719 C 131.285156 347.386719 172.972656 337.386719 168.253906 292.359375 C 168.253906 305.144531 153.800781 332.105469 123.503906 332.105469 C 93.210938 332.105469 74.308594 309.585938 74.308594 287.355469 C 74.308594 265.121094 92.652344 235.375 124.617188 235.375 C 156.574219 235.375 179.921875 263.730469 179.921875 292.359375 C 179.921875 320.988281 157.414062 357.398438 121.558594 357.398438 Z M 121.558594 357.398438 "/>
<path style="fill-rule:evenodd;fill:rgb(99.214172%,80.783081%,7.058716%);fill-opacity:1;stroke-width:1.052631;stroke-linecap:butt;stroke-linejoin:miter;stroke:rgb(99.214172%,80.783081%,7.058716%);stroke-opacity:1;stroke-miterlimit:4;" d="M 95.5 312.890625 L 97.273438 314.039062 C 97.273438 314.039062 111.34375 281.933594 149.175781 259.105469 C 144.386719 261.71875 119.058594 274.324219 95.5 312.890625 Z M 95.5 312.890625 "/>
<path style=" stroke:none;fill-rule:evenodd;fill:rgb(99.214172%,80.783081%,7.058716%);fill-opacity:1;" d="M 99.152344 307.363281 C 99.152344 307.363281 94.773438 298.402344 98.632812 294.441406 C 102.488281 290.480469 100.714844 304.972656 100.714844 304.972656 L 102.386719 302.570312 C 102.386719 302.570312 99.773438 291.625 102.695312 289.332031 C 105.613281 287.042969 104.148438 299.863281 104.148438 299.863281 L 105.925781 297.566406 C 105.925781 297.566406 104.050781 286.9375 106.859375 284.953125 C 109.675781 282.976562 107.910156 294.960938 107.910156 294.960938 L 109.992188 292.5625 C 109.992188 292.5625 108.429688 282.453125 111.863281 280.0625 C 115.308594 277.660156 112.28125 289.648438 112.28125 289.648438 L 114.574219 287.148438 C 114.574219 287.148438 113.535156 277.871094 116.453125 275.78125 C 119.367188 273.699219 116.871094 284.539062 116.871094 284.539062 L 118.953125 282.347656 C 118.953125 282.347656 118.328125 273.699219 121.140625 271.722656 C 123.957031 269.742188 121.355469 279.957031 121.355469 279.957031 L 123.542969 277.871094 C 123.542969 277.871094 123.023438 269.222656 126.5625 267.554688 C 130.101562 265.886719 125.933594 275.683594 125.933594 275.683594 L 128.335938 273.601562 C 128.335938 273.601562 129.058594 263.484375 132.085938 262.546875 C 135.109375 261.613281 130.730469 271.507812 130.730469 271.507812 L 132.917969 269.742188 C 132.917969 269.742188 134.066406 261.089844 137.402344 260.050781 C 140.738281 259.007812 135.320312 267.96875 135.320312 267.96875 L 137.507812 266.300781 C 137.507812 266.300781 139.898438 257.648438 143.023438 256.714844 C 146.160156 255.777344 139.796875 264.84375 139.796875 264.84375 L 141.886719 263.386719 C 141.886719 263.386719 145.320312 255.566406 148.136719 255.046875 C 150.953125 254.523438 145.011719 261.507812 145.011719 261.507812 L 147.613281 259.945312 C 147.613281 259.945312 152.101562 251.816406 153.664062 254.3125 C 155.226562 256.820312 147.402344 260.464844 147.402344 260.464844 L 144.800781 261.921875 C 144.800781 261.921875 154.289062 257.4375 155.433594 259.734375 C 156.574219 262.027344 142.40625 263.484375 142.40625 263.484375 L 140.113281 265.046875 C 140.113281 265.046875 149.59375 262.445312 148.445312 264.84375 C 147.304688 267.234375 137.921875 266.714844 137.921875 266.714844 L 135.734375 268.277344 C 135.734375 268.277344 145.214844 265.992188 143.96875 268.179688 C 142.714844 270.359375 133.441406 270.160156 133.441406 270.160156 L 131.152344 272.027344 C 131.152344 272.027344 140.421875 269.636719 139.070312 272.453125 C 137.710938 275.261719 127.191406 275.164062 127.191406 275.164062 L 124.585938 277.554688 C 124.585938 277.554688 134.375 274.21875 133.546875 276.832031 C 132.714844 279.433594 121.558594 280.785156 121.558594 280.785156 L 119.058594 283.292969 C 119.058594 283.292969 129.582031 279.742188 126.457031 282.976562 C 123.332031 286.207031 115.722656 287.042969 115.722656 287.042969 L 112.703125 290.691406 C 112.703125 290.691406 123.121094 284.429688 121.664062 287.980469 C 120.207031 291.519531 109.992188 293.921875 109.992188 293.921875 L 107.910156 296.417969 C 107.910156 296.417969 117.285156 291 116.351562 294.027344 C 115.414062 297.046875 105.402344 300.277344 105.402344 300.277344 L 103.734375 302.570312 C 103.734375 302.570312 114.789062 296.003906 113.84375 299.339844 C 112.90625 302.675781 102.386719 305.070312 102.386719 305.070312 L 101.023438 307.152344 C 101.023438 307.152344 111.238281 301.320312 111.34375 304.132812 C 111.449219 306.949219 99.355469 309.765625 99.355469 309.765625 Z M 99.152344 307.363281 "/>
<path style="fill-rule:evenodd;fill:rgb(99.214172%,80.783081%,7.058716%);fill-opacity:1;stroke-width:1.052631;stroke-linecap:butt;stroke-linejoin:miter;stroke:rgb(99.214172%,80.783081%,7.058716%);stroke-opacity:1;stroke-miterlimit:4;" d="M 155.550781 312.890625 L 153.773438 314.039062 C 153.773438 314.039062 139.707031 281.933594 101.871094 259.105469 C 106.664062 261.71875 131.996094 274.324219 155.550781 312.890625 Z M 155.550781 312.890625 "/>
<path style=" stroke:none;fill-rule:evenodd;fill:rgb(99.214172%,80.783081%,7.058716%);fill-opacity:1;" d="M 151.902344 307.363281 C 151.902344 307.363281 156.285156 298.402344 152.425781 294.441406 C 148.566406 290.480469 150.339844 304.972656 150.339844 304.972656 L 148.671875 302.570312 C 148.671875 302.570312 151.277344 291.625 148.355469 289.332031 C 145.441406 287.042969 146.898438 299.863281 146.898438 299.863281 L 145.125 297.566406 C 145.125 297.566406 147.003906 286.9375 144.191406 284.953125 C 141.371094 282.976562 143.148438 294.960938 143.148438 294.960938 L 141.066406 292.5625 C 141.066406 292.5625 142.628906 282.453125 139.183594 280.0625 C 135.75 277.660156 138.769531 289.648438 138.769531 289.648438 L 136.476562 287.148438 C 136.476562 287.148438 137.515625 277.871094 134.601562 275.78125 C 131.679688 273.699219 134.179688 284.539062 134.179688 284.539062 L 132.097656 282.347656 C 132.097656 282.347656 132.722656 273.699219 129.90625 271.722656 C 127.101562 269.742188 129.703125 279.957031 129.703125 279.957031 L 127.515625 277.871094 C 127.515625 277.871094 128.035156 269.222656 124.488281 267.554688 C 120.949219 265.886719 125.113281 275.683594 125.113281 275.683594 L 122.722656 273.601562 C 122.722656 273.601562 121.988281 263.484375 118.96875 262.546875 C 115.941406 261.613281 120.320312 271.507812 120.320312 271.507812 L 118.132812 269.742188 C 118.132812 269.742188 116.984375 261.089844 113.65625 260.050781 C 110.320312 259.007812 115.738281 267.96875 115.738281 267.96875 L 113.550781 266.300781 C 113.550781 266.300781 111.148438 257.648438 108.023438 256.714844 C 104.898438 255.777344 111.253906 264.84375 111.253906 264.84375 L 109.171875 263.386719 C 109.171875 263.386719 105.730469 255.566406 102.914062 255.046875 C 100.105469 254.523438 106.046875 261.507812 106.046875 261.507812 L 103.433594 259.945312 C 103.433594 259.945312 98.957031 251.816406 97.386719 254.3125 C 95.824219 256.820312 103.644531 260.464844 103.644531 260.464844 L 106.25 261.921875 C 106.25 261.921875 96.769531 257.4375 95.621094 259.734375 C 94.476562 262.027344 108.648438 263.484375 108.648438 263.484375 L 110.9375 265.046875 C 110.9375 265.046875 101.457031 262.445312 102.605469 264.84375 C 103.753906 267.234375 113.128906 266.714844 113.128906 266.714844 L 115.316406 268.277344 C 115.316406 268.277344 105.835938 265.992188 107.085938 268.179688 C 108.332031 270.359375 117.609375 270.160156 117.609375 270.160156 L 119.90625 272.027344 C 119.90625 272.027344 110.628906 269.636719 111.980469 272.453125 C 113.335938 275.261719 123.867188 275.164062 123.867188 275.164062 L 126.472656 277.554688 C 126.472656 277.554688 116.675781 274.21875 117.503906 276.832031 C 118.34375 279.433594 129.492188 280.785156 129.492188 280.785156 L 131.996094 283.292969 C 131.996094 283.292969 121.46875 279.742188 124.59375 282.976562 C 127.71875 286.207031 135.328125 287.042969 135.328125 287.042969 L 138.355469 290.691406 C 138.355469 290.691406 127.929688 284.429688 129.386719 287.980469 C 130.851562 291.519531 141.066406 293.921875 141.066406 293.921875 L 143.148438 296.417969 C 143.148438 296.417969 133.765625 291 134.699219 294.027344 C 135.644531 297.046875 145.644531 300.277344 145.644531 300.277344 L 147.316406 302.570312 C 147.316406 302.570312 136.269531 296.003906 137.207031 299.339844 C 138.144531 302.675781 148.671875 305.070312 148.671875 305.070312 L 150.023438 307.152344 C 150.023438 307.152344 139.808594 301.320312 139.707031 304.132812 C 139.601562 306.949219 151.691406 309.765625 151.691406 309.765625 Z M 151.902344 307.363281 "/>
</g>
</svg>
